assets/images/Header/Links/swim.svg

<svg width="32" height="32" viewBox="0 0 32 32" fill="none" xmlns="http://www.w3.org/2000/svg">
<path d="M1.48013 22.7005C13.4062 19.3102 17.7654 26.1612 31.0035 22.7057C31.4948 22.5774 31.7891 22.0751 31.6609 21.5839C31.5326 21.0926 31.0304 20.7984 30.5391 20.9265C27.9401 21.605 25.6874 21.8561 23.6474 21.8588L20.9819 17.5628C22.5575 19.5205 25.4858 19.6334 27.2015 17.8089C27.9558 17.0069 28.3526 15.959 28.3189 14.8584C28.2057 11.169 23.6854 9.51355 21.1958 12.1607C19.9966 13.436 19.7791 15.2492 20.4543 16.7122L16.8071 10.834L22.2194 9.27224C23.9002 8.78724 24.6945 6.86326 23.8406 5.33297C23.2205 4.22186 21.9334 3.69217 20.711 4.04497L12.5173 6.40945C10.3928 7.02256 9.44141 9.49216 10.6079 11.3724L13.0845 15.3639C11.2993 16.4721 5.63686 19.9834 5.57674 20.0251C4.15542 20.1753 2.63329 20.461 0.977468 20.9317C0.489089 21.0706 0.205673 21.579 0.3445 22.0675C0.483267 22.556 0.991933 22.8393 1.48013 22.7005V22.7005ZM22.5353 13.4205C23.4007 12.5003 24.8454 12.4585 25.763 13.3215C26.6823 14.186 26.7267 15.6298 25.862 16.5493C24.9976 17.4684 23.5537 17.513 22.6343 16.6483C21.715 15.7837 21.6706 14.3399 22.5353 13.4205V13.4205ZM15.1316 15.1758L12.1703 10.403C11.6473 9.56007 12.0731 8.45147 13.027 8.17621L21.2207 5.81173C21.6171 5.69723 22.0339 5.86904 22.2349 6.22907C22.5122 6.72597 22.253 7.3487 21.7095 7.50555L15.131 9.40396C14.5454 9.57294 14.2839 10.2551 14.6046 10.772L21.4256 21.7656C17.136 21.4055 13.6504 20.1117 9.237 19.9152L14.8351 16.4417C15.2665 16.174 15.3993 15.6073 15.1316 15.1758V15.1758Z" fill="#565656"/>
<path d="M30.5391 25.217C17.8734 28.5233 13.429 21.6825 0.977346 25.2222C0.488967 25.361 0.205551 25.8695 0.344378 26.358C0.483206 26.8464 0.991872 27.1298 1.48013 26.9909C13.4062 23.6007 17.7654 30.4517 31.0035 26.9961C31.4948 26.8679 31.7891 26.3656 31.6609 25.8744C31.5326 25.3831 31.0304 25.0888 30.5391 25.217V25.217Z" fill="#565656"/>
</svg>

<svg xmlns="http://www.w3.org/2000/svg" width="32" height="32" fill="none" viewBox="0 0 32 32"><path fill="#565656" d="M1.48 22.7c11.926-3.39 16.285 3.461 29.523.006a.92.92 0 00-.464-1.78c-2.599.679-4.852.93-6.892.933l-2.665-4.296a4.122 4.122 0 007.337-2.705c-.113-3.689-4.634-5.344-7.123-2.697a4.122 4.122 0 00-.742 4.551l-3.647-5.878 5.412-1.562a2.72 2.72 0 001.622-3.939 2.709 2.709 0 00-3.13-1.288l-8.194 2.364a3.334 3.334 0 00-1.91 4.963l2.478 3.992c-1.786 1.108-7.448 4.62-7.508 4.661-1.422.15-2.944.436-4.6.907A.92.92 0 001.48 22.7zm21.055-9.28a2.283 2.283 0 113.327 3.128 2.283 2.283 0 01-3.327-3.127zm-7.403 1.756l-2.962-4.773a1.496 1.496 0 01.857-2.227l8.194-2.364a.881.881 0 11.489 1.694L15.13 9.404a.92.92 0 00-.526 1.368l6.82 10.994c-4.289-.36-7.775-1.654-12.188-1.85l5.598-3.474a.92.92 0 00.297-1.266zM30.54 25.217c-12.667 3.306-17.111-3.534-29.563.005a.92.92 0 00.503 1.769c11.926-3.39 16.285 3.46 29.523.005a.92.92 0 10-.464-1.779z"/></svg>
